X: 5
T: The Yellow Heifer
R: reel
M: 4/4
L: 1/8
K: Gmaj
|:GF|DGGF G3A|BGdG eGdG|DFFE F3G|AFcF dFcF|DGGF G2 GA|BAGA Bcde|f3d cAFA| (3Bcd cA G2:|||:Bc|dggf g3a|bg g2 bgaf|dcde f3g|af f2 afbf|dggf g3a|bgag fdde|f3d cAFA|(3Bcd cA G2:|||:BG G2 BGdG|BG G2 (3Bcd gd|AF F2 AFcF|AF F2 ABcA |BG G2 BGdG|BGGA Bcde|f3d cAFA|(3Bcd cA G2:||


Tune 344	Setting 13140

